design-system/components/icon/icons/dots.svg

<?xml version="1.0" encoding="UTF-8"?>
<svg width="40px" height="40px" viewBox="0 0 40 40" version="1.1" xmlns="http://www.w3.org/2000/svg" xmlns:xlink="http://www.w3.org/1999/xlink">
    <!-- Generator: Sketch 64 (93537) - https://sketch.com -->
    <title>icon/dots</title>
    <desc>Created with Sketch.</desc>
    <g id="icon/dots" stroke="none" stroke-width="1" fill="none" fill-rule="evenodd">
        <path d="M20.0002,28.9819 C21.6572,28.9819 23.0002,30.3249 23.0002,31.9819 C23.0002,33.6389 21.6572,34.9819 20.0002,34.9819 C18.3432,34.9819 17.0002,33.6389 17.0002,31.9819 C17.0002,30.3249 18.3432,28.9819 20.0002,28.9819 Z M20.0002,17.0459 C21.6572,17.0459 23.0002,18.3889 23.0002,20.0459 C23.0002,21.7029 21.6572,23.0459 20.0002,23.0459 C18.3432,23.0459 17.0002,21.7029 17.0002,20.0459 C17.0002,18.3889 18.3432,17.0459 20.0002,17.0459 Z M20.0002,4.9999 C21.6572,4.9999 23.0002,6.3429 23.0002,7.9999 C23.0002,9.6569 21.6572,10.9999 20.0002,10.9999 C18.3432,10.9999 17.0002,9.6569 17.0002,7.9999 C17.0002,6.3429 18.3432,4.9999 20.0002,4.9999 Z" id="Combined-Shape" fill="#000000"></path>
    </g>
</svg>

<svg height="40" viewBox="0 0 40 40" width="40" xmlns="http://www.w3.org/2000/svg">
    <path d="m20.0002 28.9819c1.657 0 3 1.343 3 3s-1.343 3-3 3-3-1.343-3-3 1.343-3 3-3zm0-11.936c1.657 0 3 1.343 3 3s-1.343 3-3 3-3-1.343-3-3 1.343-3 3-3zm0-12.046c1.657 0 3 1.343 3 3s-1.343 3-3 3-3-1.343-3-3 1.343-3 3-3z" fill-rule="evenodd"/>
</svg>
